src/images/single-assets/stATOM.svg

<svg xmlns="http://www.w3.org/2000/svg" width="500" height="500" fill="none"><mask id="a" width="500" height="500" x="0" y="0" maskUnits="userSpaceOnUse" style="mask-type:alpha"><path fill="#D9D9D9" d="M250 500c138.071 0 250-111.929 250-250S388.071 0 250 0 0 111.929 0 250s111.929 250 250 250"/></mask><g mask="url(#a)"><path fill="#E50571" d="M500 0H0v500h500z"/><path fill="#fff" d="M252.176 92.028c-19.409 0-35.148 70.402-35.148 157.248 0 86.844 15.739 157.246 35.148 157.246 19.411 0 35.15-70.402 35.15-157.246 0-86.846-15.739-157.248-35.15-157.248m2.428 305.62c-2.219 2.961-4.439.739-4.439.739-8.939-10.357-13.408-29.598-13.408-29.598-15.637-50.319-11.916-158.356-11.916-158.356 7.348-85.772 20.716-106.033 25.266-110.532a2.77 2.77 0 0 1 3.558-.287c6.6 4.676 12.135 24.235 12.135 24.235 16.346 60.678 14.865 117.658 14.865 117.658 1.481 49.578-8.191 105.076-8.191 105.076-7.444 42.178-17.87 51.065-17.87 51.065"/><path fill="#fff" d="M388.572 171.016c-9.666-16.842-78.557 4.543-153.924 47.76-75.366 43.215-128.528 91.904-118.871 108.741 9.657 16.835 78.557-4.543 153.923-47.761 75.365-43.215 128.528-91.905 118.872-108.74m-263.879 154.19c-3.7-.465-2.864-3.506-2.864-3.506 4.538-12.907 18.981-26.359 18.981-26.359 35.882-38.604 131.451-89.139 131.451-89.139 78.045-36.311 102.289-34.779 108.439-33.086a2.779 2.779 0 0 1 2.013 2.961c-.739 8.056-14.985 22.585-14.985 22.585-44.467 44.392-94.63 71.468-94.63 71.468-42.27 25.965-95.221 45.183-95.221 45.183-40.292 14.517-53.182 9.893-53.182 9.893z"/><path fill="#fff" d="M388.231 328.082c9.739-16.797-43.29-65.708-118.392-109.25-75.1-43.542-143.984-65.192-153.714-48.365-9.731 16.826 43.289 65.711 118.434 109.252 75.143 43.542 143.941 65.192 153.672 48.363M122.578 176.957c-1.439-3.411 1.598-4.232 1.598-4.232 13.445-2.539 32.33 3.247 32.33 3.247 51.377 11.699 142.99 69.084 142.99 69.084 70.535 49.359 81.352 71.098 82.974 77.27a2.774 2.774 0 0 1-1.539 3.226c-7.357 3.367-27.055-1.65-27.055-1.65-60.715-16.278-109.274-46.107-109.274-46.107-43.629-23.532-86.77-59.739-86.77-59.739-32.781-27.601-35.244-41.061-35.244-41.061z"/><path fill="#fff" d="M251.809 267.4c10.215 0 18.497-8.283 18.497-18.5s-8.282-18.5-18.497-18.5c-10.218 0-18.5 8.283-18.5 18.5s8.282 18.5 18.5 18.5M327.654 188.96c5.926 0 10.731-4.969 10.731-11.1s-4.805-11.099-10.731-11.099-10.728 4.969-10.728 11.099c0 6.131 4.802 11.1 10.728 11.1M151.54 226.698c5.926 0 10.73-4.97 10.73-11.1s-4.804-11.1-10.73-11.1-10.73 4.97-10.73 11.1 4.804 11.1 10.73 11.1M229.978 362.856c5.926 0 10.731-4.969 10.731-11.1s-4.805-11.1-10.731-11.1-10.73 4.97-10.73 11.1c0 6.131 4.804 11.1 10.73 11.1"/></g></svg>

<svg width="500" height="500" viewBox="0 0 500 500" fill="none" xmlns="http://www.w3.org/2000/svg">
<mask id="mask0_207_379" style="mask-type:alpha" maskUnits="userSpaceOnUse" x="0" y="0" width="500" height="500">
<path d="M250 500C388.071 500 500 388.071 500 250C500 111.929 388.071 0 250 0C111.929 0 0 111.929 0 250C0 388.071 111.929 500 250 500Z" fill="#D9D9D9"/>
</mask>
<g mask="url(#mask0_207_379)">
<path d="M500 0H0V500H500V0Z" fill="#E50571"/>
<path d="M252.176 92.0283C232.767 92.0283 217.028 162.43 217.028 249.276C217.028 336.12 232.767 406.522 252.176 406.522C271.587 406.522 287.326 336.12 287.326 249.276C287.326 162.43 271.587 92.0283 252.176 92.0283ZM254.604 397.648C252.385 400.609 250.165 398.387 250.165 398.387C241.226 388.03 236.757 368.789 236.757 368.789C221.12 318.47 224.841 210.433 224.841 210.433C232.189 124.661 245.557 104.4 250.107 99.9014C250.57 99.4422 251.183 99.1618 251.833 99.1092C252.483 99.0566 253.133 99.2353 253.665 99.6138C260.265 104.29 265.8 123.849 265.8 123.849C282.146 184.527 280.665 241.507 280.665 241.507C282.146 291.085 272.474 346.583 272.474 346.583C265.03 388.761 254.604 397.648 254.604 397.648Z" fill="white"/>
<path d="M388.572 171.016C378.906 154.174 310.015 175.559 234.648 218.776C159.282 261.991 106.12 310.68 115.777 327.517C125.434 344.352 194.334 322.974 269.7 279.756C345.065 236.541 398.228 187.851 388.572 171.016ZM124.693 325.206C120.993 324.741 121.829 321.7 121.829 321.7C126.367 308.793 140.81 295.341 140.81 295.341C176.692 256.737 272.261 206.202 272.261 206.202C350.306 169.891 374.55 171.423 380.7 173.116C381.33 173.293 381.878 173.687 382.248 174.228C382.617 174.77 382.78 175.425 382.713 176.077C381.974 184.133 367.728 198.662 367.728 198.662C323.261 243.054 273.098 270.13 273.098 270.13C230.828 296.095 177.877 315.313 177.877 315.313C137.585 329.83 124.695 325.206 124.695 325.206H124.693Z" fill="white"/>
<path d="M388.231 328.082C397.97 311.285 344.941 262.374 269.839 218.832C194.739 175.29 125.855 153.64 116.125 170.467C106.394 187.293 159.414 236.178 234.559 279.719C309.702 323.261 378.5 344.911 388.231 328.082ZM122.578 176.957C121.139 173.546 124.176 172.725 124.176 172.725C137.621 170.186 156.506 175.972 156.506 175.972C207.883 187.671 299.496 245.056 299.496 245.056C370.031 294.415 380.848 316.154 382.47 322.326C382.635 322.958 382.57 323.63 382.289 324.219C382.007 324.811 381.526 325.282 380.931 325.552C373.574 328.919 353.876 323.902 353.876 323.902C293.161 307.624 244.602 277.795 244.602 277.795C200.973 254.263 157.832 218.056 157.832 218.056C125.051 190.455 122.588 176.995 122.588 176.995L122.578 176.957Z" fill="white"/>
<path d="M251.809 267.4C262.024 267.4 270.306 259.117 270.306 248.9C270.306 238.683 262.024 230.4 251.809 230.4C241.591 230.4 233.309 238.683 233.309 248.9C233.309 259.117 241.591 267.4 251.809 267.4Z" fill="white"/>
<path d="M327.654 188.96C333.58 188.96 338.385 183.991 338.385 177.86C338.385 171.73 333.58 166.761 327.654 166.761C321.728 166.761 316.926 171.73 316.926 177.86C316.926 183.991 321.728 188.96 327.654 188.96Z" fill="white"/>
<path d="M151.54 226.698C157.466 226.698 162.27 221.728 162.27 215.598C162.27 209.468 157.466 204.498 151.54 204.498C145.614 204.498 140.81 209.468 140.81 215.598C140.81 221.728 145.614 226.698 151.54 226.698Z" fill="white"/>
<path d="M229.978 362.856C235.904 362.856 240.709 357.887 240.709 351.756C240.709 345.626 235.904 340.656 229.978 340.656C224.052 340.656 219.248 345.626 219.248 351.756C219.248 357.887 224.052 362.856 229.978 362.856Z" fill="white"/>
</g>
</svg>
